!!!OTL: Der Kreuzzug.
!!!OTL-incipit: SANCT MICHAEL HAT SICH GEBAUET
!!!ARE: Europa, Mitteleuropa, Deutschland, Rhein
!!!SCT: Z1009
!!!TXL: @@DE
!!!YEM: Copyright 1995, estate of Helmut Schaffrath.
**kern	**text
*ICvox	*
*M6/8	*
*k[b-e-]	*
*g:	*
!LO:TX:a:t=(Das Lied ſcheint aus den Kreuʒʒügen ʒu ſtammen, und wird noch am Rheine geſungen.)	!
{8d	Sanct
=1	=1
8g	Mi-
8g	-cha-
8a	-el
8b-/	hat
8a	ſich
8b-/	ge-
=2	=2
4.g	-bau-
4f#}	-et
{8d	auf
=3	=3
8g	ei-
8g	-nen
8a	gar
8b-L	ho-
8aJ	.
8g	-hen
=4	=4
[>4.a	Berg,
4a]}	.
{8d	Sanct
=5	=5
8g	Mi-
8g	-cha-
8a	-el
8b-/	hat
8a	ſich
8b-/	ge-
=6	=6
4.g	-bau-
4f#}	-et
{8d	auf
=7	=7
8g	ei-
8g	-nen
8a	gar
8b-L	ho-
8aJ	.
8g	-hen
=8	=8
4.a	Berg:
4r}	.
{16gL	ge-
16aJ	.
=9	=9
8b-/	-bau-
8a	-et
8b-/	ein
8ccL	ſchö-
8b-J	.
8cc	-nes
=10	=10
4.dd	Klo-
4cc}	-ſter,
{8b-	das
=11	=11
8a	Klo-
8b-/	-ſter
8g	war
8f#L	ſe-
8gJ	.
8a	-hens-
=12	=12
4.g	-werth!
4r}	.
==	==
!!!AGN: Romanze, Ballade, Maria, geistlich
!!!ONB: ESAC (Essen Associative Code) Database: ZUCCAL
!!!AMT: compound duple
!!!AIN: vox
!!!EED: Helmut Schaffrath
!!!EEV: 1.0
!!!GTL: I. Volks- Leuschen.
!!!URL-scan: https://www.digitale-sammlungen.de/de/view/bsb11160573?page=34
!!!ENC: Anna Maria Matuszewska
!!!EEV: 2025/01/31
*-	*-
